packages/icons/assets/Transformation.svg

<svg xmlns="http://www.w3.org/2000/svg" viewBox="0 0 16 16"><path fill="#414141" d="m4.8515 4.14-3.5-3.5-.707.707 3.5 3.5-2.146 2.147h5v-5zm1.147 1.854h-1.586l1.586-1.586zm9.344 8.66-3.5-3.5 2.156-2.16h-5v5l2.134-2.134 3.5 3.5zm-5.344-4.66h1.586l-1.586 1.585zm5.369-8.636-.707-.707-3.5 3.5-2.162-2.157v5h5l-2.134-2.134zm-5.369 4.636V4.408l1.586 1.586zm-3 3h-5l2.134 2.134-3.5 3.5.707.707 3.5-3.5 2.159 2.159zm-1 2.586-1.585-1.586h1.585z"/></svg>

<svg xmlns="http://www.w3.org/2000/svg" viewBox="0 0 16 16"><path fill="#414141" d="M4.85 4.14 1.35.64l-.7.7 3.5 3.5L2 7h5V2zM6 5.99H4.4L6 4.41zm9.34 8.66-3.5-3.5L14 9H9v5l2.13-2.13 3.5 3.5zM10 10h1.58L10 11.58zm5.37-8.63-.7-.7-3.51 3.5L9 1.98v5h5l-2.14-2.13zM10 5.99V4.41l1.58 1.58zM7 9H2l2.13 2.14-3.5 3.5.71.7 3.5-3.5L7 14zm-1 2.59-1.6-1.6H6z"/></svg>
